findly-builder/apps/searchassist/src/assets/icons/checkbox-check.svg

<svg width="12" height="10" viewBox="0 0 12 10" fill="none" xmlns="http://www.w3.org/2000/svg">
<path fill-rule="evenodd" clip-rule="evenodd" d="M11.0571 0.902969C11.2204 0.727215 11.4938 0.718362 11.6679 0.883196C11.8317 1.03833 11.8491 1.29203 11.7145 1.46787L11.6875 1.49988L4.37017 8.94534C4.21384 9.11366 3.95715 9.12848 3.78329 8.98617L3.75171 8.95765L0.266261 5.48969C0.0962818 5.32056 0.0942737 5.04433 0.261776 4.8727C0.419425 4.71117 0.671041 4.69987 0.84181 4.8401L0.872839 4.86817L4.04281 8.02221L11.0571 0.902969Z" fill="white"/>
</svg>

<svg width="12" height="10" fill="none" xmlns="http://www.w3.org/2000/svg"><path fill-rule="evenodd" clip-rule="evenodd" d="M11.057.903a.43.43 0 0 1 .61-.02.44.44 0 0 1 .047.585l-.027.032L4.37 8.945a.43.43 0 0 1-.587.041l-.031-.028L.266 5.49a.44.44 0 0 1-.004-.617.43.43 0 0 1 .58-.033l.03.028 3.17 3.154L11.058.903Z" fill="#fff"/></svg>
